X:283
T: Haughs of Cromdale
N: O'Farrell's Pocket Companion v.3 (Sky ed. p.129)
N: "Scotch"
% Haugh = a piece of low-lying level ground, a meadow
M: C
L: 1/8
R: hornpipe
Q: 320
K: Em
z| BEE>F BAF>A| BEE>F D>EFA| BEE>F BAF>A| BA d/B/A/F/ E3 :|
F| Ddd>e dedA| FAA>B ABAF| Eee>f gefd| BA d/B/A/F/ E3 :|
